svg/vscode-codicons/search-fuzzy.svg

<svg width="16" height="16" viewBox="0 0 16 16" xmlns="http://www.w3.org/2000/svg" fill="currentColor"><path d="M8 1.5C5.51472 1.5 3.5 3.51472 3.5 6C3.5 7.20114 3.9706 8.29237 4.73749 9.09937L1.04291 12.7939L1.75001 13.5011L5.5053 9.74577C6.2193 10.2222 7.07721 10.5 8 10.5C10.4853 10.5 12.5 8.48528 12.5 6C12.5 3.51472 10.4853 1.5 8 1.5ZM4.5 6C4.5 4.067 6.067 2.5 8 2.5C9.933 2.5 11.5 4.067 11.5 6C11.5 7.933 9.933 9.5 8 9.5C6.067 9.5 4.5 7.933 4.5 6Z"/><path d="M8.99998 13.8546L6.85353 16.0011H6.14642L4.64642 14.5011L5.35353 13.7939L6.49998 14.9404L8.64642 12.7939H9.35353L11.5 14.9404L13.6464 12.7939H14.3535L16 14.4404V15.8546L14 13.8546L11.8535 16.0011H11.1464L8.99998 13.8546Z"/></svg>

<svg xmlns="http://www.w3.org/2000/svg" width="16" height="16" viewBox="0 0 16 16"><path d="M8 1.5a4.5 4.5 0 0 0-3.263 7.6l-3.694 3.694.707.707 3.755-3.755A4.5 4.5 0 1 0 8 1.5ZM4.5 6a3.5 3.5 0 1 1 7 0 3.5 3.5 0 0 1-7 0ZM9 13.855 6.854 16h-.708l-1.5-1.5.708-.707L6.5 14.94l2.146-2.146h.708L11.5 14.94l2.146-2.146h.707L16 14.44v1.415l-2-2L11.854 16h-.708L9 13.855Z"/></svg>
